WEBSITE PICS/4. Collection/Artistic Expressions/Music/IMG_6073.xmp
<x:xmpmeta xmlns:x="adobe:ns:meta/" x:xmptk="Adobe XMP Core 5.6-c140 79.160451, 2017/05/06-01:08:21        ">
 <rdf:RDF xmlns:rdf="http://www.w3.org/1999/02/22-rdf-syntax-ns#">
  <rdf:Description rdf:about=""
    xmlns:xmp="http://ns.adobe.com/xap/1.0/"
    xmlns:tiff="http://ns.adobe.com/tiff/1.0/"
    xmlns:exif="http://ns.adobe.com/exif/1.0/"
    xmlns:aux="http://ns.adobe.com/exif/1.0/aux/"
    xmlns:exifEX="http://cipa.jp/exif/1.0/"
    xmlns:photoshop="http://ns.adobe.com/photoshop/1.0/"
    xmlns:xmpMM="http://ns.adobe.com/xap/1.0/mm/"
    xmlns:stEvt="http://ns.adobe.com/xap/1.0/sType/ResourceEvent#"
    xmlns:dc="http://purl.org/dc/elements/1.1/"
    xmlns:crd="http://ns.adobe.com/camera-raw-defaults/1.0/"
    xmlns:crs="http://ns.adobe.com/camera-raw-settings/1.0/"
   xmp:Rating="0"
   xmp:ModifyDate="2025-04-30T06:31:53.79"
   xmp:CreateDate="2025-04-30T06:31:53.79"
   xmp:MetadataDate="2025-10-26T22:20:07+08:00"
   tiff:Make="Canon"
   tiff:Model="Canon EOS 700D"
   tiff:Orientation="1"
   exif:ExifVersion="0230"
   exif:ExposureTime="1/200"
   exif:ShutterSpeedValue="7643856/1000000"
   exif:FNumber="5/1"
   exif:ApertureValue="4643856/1000000"
   exif:ExposureProgram="1"
   exif:SensitivityType="2"
   exif:RecommendedExposureIndex="100"
   exif:ExposureBiasValue="0/1"
   exif:MaxApertureValue="4375/1000"
   exif:MeteringMode="2"
   exif:FocalLength="54/1"
   exif:CustomRendered="0"
   exif:ExposureMode="1"
   exif:WhiteBalance="0"
   exif:SceneCaptureType="0"
   exif:FocalPlaneXResolution="5184000/894"
   exif:FocalPlaneYResolution="3456000/597"
   exif:FocalPlaneResolutionUnit="2"
   exif:DateTimeOriginal="2025-04-30T06:31:53.79"
   aux:SerialNumber="068031005640"
   aux:LensInfo="18/1 200/1 0/0 0/0"
   aux:Lens="TAMRON 18-200mm F/3.5-6.3 DiII A14E"
   aux:LensID="153"
   aux:LensSerialNumber="0000000000"
   aux:ImageNumber="0"
   aux:FlashCompensation="0/1"
   aux:Firmware="1.1.1"
   exifEX:LensModel="TAMRON 18-200mm F/3.5-6.3 DiII A14E"
   photoshop:DateCreated="2025-04-30T06:31:53.79"
   photoshop:SidecarForExtension="CR2"
   photoshop:EmbeddedXMPDigest="AD0ACF660F79AC49FD004B2DD3BC0461"
   xmpMM:DocumentID="D9749ED9137B8AC41B9FE3907B9AAE66"
   xmpMM:OriginalDocumentID="D9749ED9137B8AC41B9FE3907B9AAE66"
   xmpMM:InstanceID="xmp.iid:bcffdd0c-1041-1242-a05d-7abc11e6acdd"
   dc:format="image/x-canon-cr2"
   crd:CameraProfile="Camera Neutral"
   crd:LookName=""
   crs:Version="13.3"
   crs:ProcessVersion="11.0"
   crs:WhiteBalance="As Shot"
   crs:Temperature="5200"
   crs:Tint="-1"
   crs:Exposure2012="+0.35"
   crs:Contrast2012="+18"
   crs:Highlights2012="0"
   crs:Shadows2012="0"
   crs:Whites2012="-30"
   crs:Blacks2012="0"
   crs:Texture="0"
   crs:Clarity2012="0"
   crs:Dehaze="0"
   crs:Vibrance="0"
   crs:Saturation="0"
   crs:ParametricShadows="0"
   crs:ParametricDarks="0"
   crs:ParametricLights="0"
   crs:ParametricHighlights="0"
   crs:ParametricShadowSplit="25"
   crs:ParametricMidtoneSplit="50"
   crs:ParametricHighlightSplit="75"
   crs:Sharpness="40"
   crs:SharpenRadius="+1.0"
   crs:SharpenDetail="25"
   crs:SharpenEdgeMasking="0"
   crs:LuminanceSmoothing="0"
   crs:ColorNoiseReduction="25"
   crs:ColorNoiseReductionDetail="50"
   crs:ColorNoiseReductionSmoothness="50"
   crs:HueAdjustmentRed="0"
   crs:HueAdjustmentOrange="0"
   crs:HueAdjustmentYellow="0"
   crs:HueAdjustmentGreen="0"
   crs:HueAdjustmentAqua="0"
   crs:HueAdjustmentBlue="0"
   crs:HueAdjustmentPurple="0"
   crs:HueAdjustmentMagenta="0"
   crs:SaturationAdjustmentRed="0"
   crs:SaturationAdjustmentOrange="0"
   crs:SaturationAdjustmentYellow="0"
   crs:SaturationAdjustmentGreen="0"
   crs:SaturationAdjustmentAqua="0"
   crs:SaturationAdjustmentBlue="0"
   crs:SaturationAdjustmentPurple="0"
   crs:SaturationAdjustmentMagenta="0"
   crs:LuminanceAdjustmentRed="0"
   crs:LuminanceAdjustmentOrange="0"
   crs:LuminanceAdjustmentYellow="0"
   crs:LuminanceAdjustmentGreen="0"
   crs:LuminanceAdjustmentAqua="0"
   crs:LuminanceAdjustmentBlue="0"
   crs:LuminanceAdjustmentPurple="0"
   crs:LuminanceAdjustmentMagenta="0"
   crs:SplitToningShadowHue="35"
   crs:SplitToningShadowSaturation="15"
   crs:SplitToningHighlightHue="0"
   crs:SplitToningHighlightSaturation="0"
   crs:SplitToningBalance="0"
   crs:ColorGradeMidtoneHue="0"
   crs:ColorGradeMidtoneSat="0"
   crs:ColorGradeShadowLum="0"
   crs:ColorGradeMidtoneLum="0"
   crs:ColorGradeHighlightLum="0"
   crs:ColorGradeBlending="100"
   crs:ColorGradeGlobalHue="0"
   crs:ColorGradeGlobalSat="0"
   crs:ColorGradeGlobalLum="0"
   crs:AutoLateralCA="0"
   crs:LensProfileEnable="0"
   crs:LensManualDistortionAmount="0"
   crs:VignetteAmount="0"
   crs:DefringePurpleAmount="0"
   crs:DefringePurpleHueLo="30"
   crs:DefringePurpleHueHi="70"
   crs:DefringeGreenAmount="0"
   crs:DefringeGreenHueLo="40"
   crs:DefringeGreenHueHi="60"
   crs:PerspectiveUpright="0"
   crs:PerspectiveVertical="0"
   crs:PerspectiveHorizontal="0"
   crs:PerspectiveRotate="0.0"
   crs:PerspectiveAspect="0"
   crs:PerspectiveScale="100"
   crs:PerspectiveX="0.00"
   crs:PerspectiveY="0.00"
   crs:GrainAmount="0"
   crs:PostCropVignetteAmount="0"
   crs:ShadowTint="0"
   crs:RedHue="0"
   crs:RedSaturation="0"
   crs:GreenHue="0"
   crs:GreenSaturation="0"
   crs:BlueHue="0"
   crs:BlueSaturation="0"
   crs:OverrideLookVignette="False"
   crs:ToneCurveName2012="Linear"
   crs:CameraProfile="Adobe Standard"
   crs:CameraProfileDigest="BA45C872F6A5D11497D00CBA08D5783F"
   crs:HasSettings="True"
   crs:HasCrop="False"
   crs:AlreadyApplied="False">
   <exif:ISOSpeedRatings>
    <rdf:Seq>
     <rdf:li>100</rdf:li>
    </rdf:Seq>
   </exif:ISOSpeedRatings>
   <exif:Flash
    exif:Fired="False"
    exif:Return="0"
    exif:Mode="2"
    exif:Function="False"
    exif:RedEyeMode="False"/>
   <xmpMM:History>
    <rdf:Seq>
     <rdf:li
      stEvt:action="saved"
      stEvt:instanceID="xmp.iid:bcffdd0c-1041-1242-a05d-7abc11e6acdd"
      stEvt:when="2025-10-26T22:20:07+08:00"
      stEvt:softwareAgent="Adobe Photoshop Camera Raw 13.4 (Windows)"
      stEvt:changed="/metadata"/>
    </rdf:Seq>
   </xmpMM:History>
   <crs:ToneCurvePV2012>
    <rdf:Seq>
     <rdf:li>0, 0</rdf:li>
     <rdf:li>255, 255</rdf:li>
    </rdf:Seq>
   </crs:ToneCurvePV2012>
   <crs:ToneCurvePV2012Red>
    <rdf:Seq>
     <rdf:li>0, 0</rdf:li>
     <rdf:li>255, 255</rdf:li>
    </rdf:Seq>
   </crs:ToneCurvePV2012Red>
   <crs:ToneCurvePV2012Green>
    <rdf:Seq>
     <rdf:li>0, 0</rdf:li>
     <rdf:li>255, 255</rdf:li>
    </rdf:Seq>
   </crs:ToneCurvePV2012Green>
   <crs:ToneCurvePV2012Blue>
    <rdf:Seq>
     <rdf:li>0, 0</rdf:li>
     <rdf:li>255, 255</rdf:li>
    </rdf:Seq>
   </crs:ToneCurvePV2012Blue>
   <crs:Look>
    <rdf:Description
     crs:Name="Vintage 06"
     crs:Amount="1.000000"
     crs:Cluster="Adobe"
     crs:UUID="53EDA964850322DB5C12DBBC27965701"
     crs:SupportsMonochrome="false"
     crs:Copyright="© 2018 Adobe Systems, Inc.">
    <crs:Group>
     <rdf:Alt>
      <rdf:li xml:lang="x-default">Vintage</rdf:li>
     </rdf:Alt>
    </crs:Group>
    <crs:Parameters>
     <rdf:Description
      crs:Version="13.3"
      crs:ProcessVersion="11.0"
      crs:ConvertToGrayscale="False"
      crs:LookTable="E1095149FDB39D7A057BAB208837E2E1"
      crs:RGBTable="D133EC539BB44CE73B8890C50B8D9F9E"
      crs:RGBTableAmount="0.5">
     <crs:ToneCurvePV2012>
      <rdf:Seq>
       <rdf:li>0, 29</rdf:li>
       <rdf:li>50, 56</rdf:li>
       <rdf:li>123, 136</rdf:li>
       <rdf:li>184, 194</rdf:li>
       <rdf:li>255, 233</rdf:li>
      </rdf:Seq>
     </crs:ToneCurvePV2012>
     <crs:ToneCurvePV2012Red>
      <rdf:Seq>
       <rdf:li>0, 0</rdf:li>
       <rdf:li>255, 255</rdf:li>
      </rdf:Seq>
     </crs:ToneCurvePV2012Red>
     <crs:ToneCurvePV2012Green>
      <rdf:Seq>
       <rdf:li>0, 0</rdf:li>
       <rdf:li>255, 255</rdf:li>
      </rdf:Seq>
     </crs:ToneCurvePV2012Green>
     <crs:ToneCurvePV2012Blue>
      <rdf:Seq>
       <rdf:li>0, 0</rdf:li>
       <rdf:li>255, 255</rdf:li>
      </rdf:Seq>
     </crs:ToneCurvePV2012Blue>
     </rdf:Description>
    </crs:Parameters>
    </rdf:Description>
   </crs:Look>
   <crs:Preset>
    <rdf:Description
     crs:Name="Creative - Vintage Instant"
     crs:Amount="1.000000"
     crs:Cluster="Adobe 1.2"
     crs:UUID="A3CE429AFD9A4CD99167A5B393E67237"
     crs:LookAmount="1.000000">
    <crs:Group>
     <rdf:Alt>
      <rdf:li xml:lang="x-default">Creative</rdf:li>
     </rdf:Alt>
    </crs:Group>
    <crs:Parameters>
     <rdf:Description
      crs:Version="13.3"
      crs:ProcessVersion="11.0"
      crs:WhiteBalance="As Shot"
      crs:Whites2012="-30"
      crs:Blacks2012="0"
      crs:Clarity2012="0"
      crs:Dehaze="0"
      crs:Vibrance="0"
      crs:Saturation="0"
      crs:HueAdjustmentRed="0"
      crs:HueAdjustmentOrange="0"
      crs:HueAdjustmentYellow="0"
      crs:HueAdjustmentGreen="0"
      crs:HueAdjustmentAqua="0"
      crs:HueAdjustmentBlue="0"
      crs:HueAdjustmentPurple="0"
      crs:HueAdjustmentMagenta="0"
      crs:SaturationAdjustmentRed="0"
      crs:SaturationAdjustmentOrange="0"
      crs:SaturationAdjustmentYellow="0"
      crs:SaturationAdjustmentGreen="0"
      crs:SaturationAdjustmentAqua="0"
      crs:SaturationAdjustmentBlue="0"
      crs:SaturationAdjustmentPurple="0"
      crs:SaturationAdjustmentMagenta="0"
      crs:LuminanceAdjustmentRed="0"
      crs:LuminanceAdjustmentOrange="0"
      crs:LuminanceAdjustmentYellow="0"
      crs:LuminanceAdjustmentGreen="0"
      crs:LuminanceAdjustmentAqua="0"
      crs:LuminanceAdjustmentBlue="0"
      crs:LuminanceAdjustmentPurple="0"
      crs:LuminanceAdjustmentMagenta="0"
      crs:SplitToningShadowHue="35"
      crs:SplitToningShadowSaturation="15"
      crs:SplitToningHighlightHue="0"
      crs:SplitToningHighlightSaturation="0"
      crs:SplitToningBalance="0"
      crs:ColorGradeMidtoneHue="0"
      crs:ColorGradeMidtoneSat="0"
      crs:ColorGradeShadowLum="0"
      crs:ColorGradeMidtoneLum="0"
      crs:ColorGradeHighlightLum="0"
      crs:ColorGradeBlending="100"
      crs:ColorGradeGlobalHue="0"
      crs:ColorGradeGlobalSat="0"
      crs:ColorGradeGlobalLum="0"
      crs:ToneCurveName2012="Linear">
     <crs:ToneCurvePV2012>
      <rdf:Seq>
       <rdf:li>0, 0</rdf:li>
       <rdf:li>255, 255</rdf:li>
      </rdf:Seq>
     </crs:ToneCurvePV2012>
     <crs:ToneCurvePV2012Red>
      <rdf:Seq>
       <rdf:li>0, 0</rdf:li>
       <rdf:li>255, 255</rdf:li>
      </rdf:Seq>
     </crs:ToneCurvePV2012Red>
     <crs:ToneCurvePV2012Green>
      <rdf:Seq>
       <rdf:li>0, 0</rdf:li>
       <rdf:li>255, 255</rdf:li>
      </rdf:Seq>
     </crs:ToneCurvePV2012Green>
     <crs:ToneCurvePV2012Blue>
      <rdf:Seq>
       <rdf:li>0, 0</rdf:li>
       <rdf:li>255, 255</rdf:li>
      </rdf:Seq>
     </crs:ToneCurvePV2012Blue>
     </rdf:Description>
    </crs:Parameters>
    </rdf:Description>
   </crs:Preset>
  </rdf:Description>
 </rdf:RDF>
</x:xmpmeta>
